X: 1
T: Mr Stirling of Keirs Reel
M:C|
L:1/8
C: Miss Magdelina Stirling's Collection
Z: source from Highland Music Trust, chords by Gary Whaley
K:A
E[|:"A" A>ATcA eATcA |"E"BBdB fBaB | "A" A>ATcA eATcA |"E"EEGE "A"A2 a :|]
e[|:"A"TcAeA TcAeA |"E" dBfB dBfB|"A" TcAeA TcAeA|"E"EEGE "A"A2 Ae |
|"A"TcAeA TcAeA |"E" dBfB dBfB|"A"Ac"E"Bd "A"ce"D"df | "E"eeTge {g}"A"a2a |]


